X: 583
T:Jack-L-N Waltz
M:3/4
L:1/8
Q:120
S:from Mike Berry
R:waltz
N:Posted to the woodenflute mailing list September 2002
Z:Tom Madden
K:G
|:DGB DGB | dcA F2E | DFA DFA | d/z/ ^c/d/e/d/  B3 |
DGB DGB | dcA EG F/E/ | DFA cBA |1 (3G/A/G/ F/ G/B/d/  g3:|
[2 (3G/A/G/ F/ G/B/d/  g2e|| (3 d/e/d/ ^c/d/e/d/ g/f/ e/d/^c/d/ |
g/f/ e/d/^c/d/ F3|(3 d/e/d/ ^c/d/e/d/ =c'/b/ a/g/f/e/ |
(3 d/e/d/ ^c/d/e/d/ B2e|(3 d/e/d/ ^c/d/e/d/ g/f/ e/d/^c/d/ |
g/f/ e/d/^c/d/ F3|(3 d/e/d/ ^c/d/e/d/ f/e/ d/=c/B/A/ | (3G/A/G/ F/G/B/d/  g3:||

